X:042
T:Minuet TS.042
M:3/4
L:1/8
Q:3/4=40
S:Thomas Sands’ MS,1810,Lincolnshire
R:minuet
C:Prefixed as ‘No.30′ in MS
O:England;Lincolnshire
Z:vmp.Ruairidh Greig, 2011
K:D
dcdefg(|”tr”a3f)ga|ba”tr”gfed|(c3B)A2|
dAeAfA|gAfAeA|dAeAfA|gAfAeA|
a2A2^c2|d6::f2(gf)(ed)|”tr”e3dc2|
e2(fe)(dc)|”tr”d3cB2|ecfd^ge|a2(^gf)(ed)|
cd”tr”B3A|A6|afdafd|gecgec|
fdBfdB|(“tr”c3B)A2|dAeAfA|gAfAeA|
dAeAfA|gAfAeA|a2A2^c2|d6:|]

